X:1
T:Étude
T:Étude
T:Op. 42 No. 5 in C♯ minor
T:Alexander Scriabin
C:Alexander Scriabin
%%score { ( 1 2 3 5 ) | 4 }
L:1/8
Q:1/4=116
M:12/8
K:E
V:1 treble nm="鋼琴" snm="Pno."
V:2 treble 
V:3 treble 
V:5 treble 
V:4 bass 
V:1
"^Affannato""^. = 84"!pp!!<(! G3!<)! |!mp! (=G3- G2!pp! c F3)!<(! ^G3!<)! | %2
!mp! (=G3- G2!pp! c F3)!<(! ^G3!<)! |!mp! (G3- G2- G/e/ G3!<(! ^EF^^F!<)! | %4
!mf!!>(! G3)!>)!!p! (E/D/G/E/[Ge]/[Dd]/ A/G/d/A/[da]/[Gg]/) G3 | !>!A3-"_cresc." A2- A/A/ A3 ^E3 | %6
 G3 .C.D.^E !tenuto!.F!tenuto!.G!tenuto!.A !tenuto!.[^B,^B]!tenuto!.[Cc]!tenuto!.[Ff] | %7
!f! [Acfa]6"_dim." !>![CDAc]6 | %8
 [^B,DG^B]3 (E/D/G/E/!>(![Ge]/[Dd]/) (A/G/!>)!d/A/[da]/[Gg]/)!ppp! !>!G3 | %9
 (!>!=G3- G2 !>!c !>!F3) !>!G3 | (!>!=G3- G2 !>!c !>!F3) !>!^G3 | %11
 (!>!G3- G2- G/!>!e/ !>!G3 !>!^E!>!F!>!^^F | !>!G3) (E/D/G/E/[Ge]/[Dd]/ A/G/d/A/[da]/[Gg]/) !>!G3 | %13
 !>!!tenuto!A3- A2- A/!>!A/ !>!A3 !>!^E3 | %14
 !>!G2- G/(!>!C/- C!>!^D!>!^E"_cresc." !>!F!>!G!>!A !>!=d2 !>!c) | %15
 !>!B3- B2- B/!>!B/ !>!B3 !>!^^F3 | %16
 !>!^A2- A/(!>!D/- D!>!.^E!>!.^^F !>!.G!>!.A!>!.B !>!e2 !>![Dd]) | %17
!f! !>![^^C^^c]3 [^Ac^a]3- [Aca]3 [Gcg]3 | %18
 [^^Fd^^f]2 (!>!^A,- A,!>!^B,!>!^^C !>!D!>!^E!>!F !>!B2 !>!^A) | %19
 !>![^^C^^c]3 [^Ac^a]3- [Aca]3 [Gcg]3 | [^^Fd^^f]3 ^^F,/F/^A,/D,/ z A,/^A/D/F,/ z [Dd]3 | %21
!f!!>(! !tenuto![Dd]!>)!!tenuto!G z z [Dd][^B,^B] ([Dd]!<(![Cc])[Ee]!<)!!f! (.[=B=b].[^A^a].[Gg]) | %22
 [Gg]3 [^B,^B][Cc][^^C^^c] ([Ee]2 [Dd])x[^C^c]z/[=B,=B]/ | %23
 !tenuto![B,B]!>!E z z [B,B][G,G] ([B,B][A,A])[Cc] (.[Gg].[Ff].[Ee]) | %24
 [Ee]3 ([^^G,^^G]2 [^A,^A]) ([Cc]3 [B,B]2) [Dd] | %25
 [Dd]G z z [Dd][^B,^B] ([Dd][Cc])[Ee] (.[=B=b].[^A^a].[Gg]) | %26
!>(! [Gg]3 [^B,^B][Cc][^^C^^c] ([Ee]2 [Dd])x[^C^c][=B,=B]!>)! |!p! B=D z z BF (BA)c (e=dc) | %28
 (c^B) z z"_cresc. poco a poco" =BF (BA)c (e=dc) | (c^B) z z cF (cB) z z cF | %30
 (c2 ^B) (=B2 ^A) (=A2 G)!f!!<(! (G/E/)(E/G/)(G/!<)!E/) | %31
!ff!!>(! (=G/E/)(E/G/)(G/E/) (E/G/)(G/E/)(c/E/)!>)!!f! (F/E/)(E/F/)(F/E/)!<(! (^G/E/)(E/G/)(G/!<)!!ff!E/) | %32
!>(! (=G/E/)(E/G/)(G/E/) (E/G/)(G/E/)(c/E/)!>)!!f! (F/E/)(E/F/)(F/E/) (^G/E/)(E/G/)(G/E/) | %33
 (G/E/)(E/G/)(G/E/) (E/G/)(G/"_cresc."E/)(G/e/) (G/E/)(E/G/)(G/E/) (^E/D/)(F/D/)(^^F/D/) | %34
 (G/D/)(D/G/)(G/D/) (E/D/)(G/E/)([Ge]/[Dd]/) (A/G/)(d/A/)([da]/[Gg]/) (G/D/)(D/G/)(G/!f!D/) | %35
"_cresc." (A/D/)(D/A/)(A/D/) (D/A/)(A/D/)(D/A/) (A/=D/)(D/A/)(A/D/) (D/^E/)(E/D/)(D/E/) | %36
 (G/C/)(C/G/)(G/C/) (C/G,/)(D/G,/)([C^E]/G,/) ([CF]/F,/)([CG]/G,/)([CA]/A,/) ([F^B]/^B,/)([Fc]/C/)([cf]/F/) | %37
!ff! (a/f/)(f/a/)(a/f/) (f/a/)(a/f/)(f/a/) (c/A/)(A/c/)(c/A/) (A/c/)(c/A/)(A/c/) | %38
"_dim." (c/G/)(G/c/)(c/G/) (G/c/)(c/G/)(G/c/) (e/^B/)(B/e/)(e/B/) (B/e/)(e/B/)(g/B/) | %39
!f!!>(! (!tenuto![cg]/G/)!>)!!mf!!tenuto!c z z ([cg]/G/)!<(!([c^e]/^E/)!<)!!f!!>(! ([cg]/G/)!>)!!mf!([cf]/F/)!<(!([fa]/A/) ([f=e']/!<)!!f!=e/)([fd']/d/)([fc']/c/) | %40
 (!>![ec']/c/)z/c/(d/c/) ([c^e]/^E/)!mf!!<(!([cf]/F/)([B^^f]/^^F/)!<)!!f! ([Ba]/A/)z/A/([Bg]/G/) (B/G/)([B^f]/^F/)([B=e]/=E/) | %41
!>(! ([Ae]/E/)!>)!!mf!A z z ([Ae]/E/)([Ac]/C/) ([Ae]/E/)([A=d]/=D/)([df]/F/) ([dc']/c/)([db]/B/)([ca]/A/) | %42
 ([ca]/A/)z/A/(^B/A/) ([B^^c]/^^C/) z ([Bd]/D/) ([Bf]/F/) z/ F/ (=B/F/) ([^ce]/E/) z ([cg]/G/) | %43
 (!tenuto![cg]/G/)!tenuto!c z z ([cg]/G/)(^E/[c^e]/) (!>![cg]/!<(!G/)(F/[cf]/)([fa]/!<)!!f!A/) (=e/!>![f=e']/)([fd']/d/)(c/[fc']/) | %44
 (!>![ec']/c/)z/c/(d/c/) ([c^e]/^E/)(F/[cf]/)([B^^f]/^^F/) ([Ba]/A/)z/A/([Bg]/G/) (B/G/)(^F/[B^f]/)([B=e]/=E/) | %45
 ([Ae]/E/)A z z ([Ae]/E/)(C/[Ac]/) ([Ae]/E/)(=D/[A=d]/)([df]/F/) (c/[dc']/)([db]/B/)A/[da]/ | %46
 ([ca]/A/)z/A/(^B/A/) ([Ge]/E/)z/E/([Gd]/D/) ([Gd]/D/) z z z2 (c/G/) | %47
!f! (=B/F/)(F/B/)(B/F/) (F/B/)(B/F/)(f/B/) (B/F/)(F/B/)(B/F/) (^B/F/)(F/B/)(B/F/) | %48
 (d/E/)(E/d/)(d/G/) ([EG]/G,/)([E^A]/^A,/)([D^B]/^B,/) ([Gc]/!<(!C/)(D/[Gd]/)([Ge]/E/) (^^F/[c^^f]/)([cg]/G/)(c/[gc']/)!<)! | %49
!ff! (e'/c'/)(c'/e'/)(e'/c'/) (c'/e'/)(e'/c'/)(c'/e'/) (e'/c'/)(c'/e'/)(e'/c'/) (c'/e'/)(e'/c'/)(c'/e'/) | %50
 (g'/c'/)(c'/g'/)(g'/c'/) (f/[gf']/)([ge']/e/)(d/[gd']/) ([gc']/c/)(A/[ca]/)!>(!([cg]/G/) (F/[Gf]/)([Ge]/E/)(C/!>)![Gc]/) | %51
!f! (B/F/)(F/B/)(B/F/) (F/B/)(B/F/)(f/B/) (B/F/)(F/B/)(B/F/) (^B/F/)(F/B/)(B/F/) | %52
 (d/E/)(E/d/)(d/G/) ([EG]/G,/)([E^A]/^A,/)([D^B]/^B,/) ([Gc]/!<(!C/)(D/[Gd]/)([Ge]/E/) (^^F/[c^^f]/)([cg]/G/)(c/[gc']/)!<)! | %53
!ff! (e'/c'/)(c'/e'/)(e'/c'/) (c'/e'/)(e'/c'/)(c'/e'/) (e'/c'/)(c'/e'/)(e'/c'/) (c'/e'/)(e'/c'/)(c'/e'/) | %54
 (g'/c'/)(c'/g'/)(g'/c'/) (f/[gf']/)([ge']/e/)(d/[gd']/) ([gc']/c/)!>(!(A/[ca]/)([cg]/G/) (F/[Gf]/)([Ge]/E/)(C/!>)!!mf![Gc]/) | %55
 (g/c/)"_dim."(c/g/)(g/c/) (F/[Gf]/)([Ge]/E/)(D/[Gd]/) ([Gc]/C/)(A,/[CA]/)([CG]/G,/) (F,/[G,F]/)([G,E]/E,/)(C,/[G,C]/) | %56
[K:bass]!p![Q:1/4=112]"_dim." (F,/[G,F]/)[Q:1/4=108]([G,E]/E,/)[Q:1/4=104](C,/[G,C]/)[Q:1/4=100] (F,/[G,F]/)[Q:1/4=96]([G,E]/E,/)[Q:1/4=92](C,/[G,C]/)[Q:1/4=88] (F,/[G,F]/)[Q:1/4=84]([G,E]/E,/)[Q:1/4=80](C,/[G,C]/)[Q:1/4=76] (F,/[G,F]/)[Q:1/4=72]([G,E]/E,/)[Q:1/4=68](C,/[Q:1/4=64][G,C]/) | %57
[K:treble][Q:1/4=116]!pp! !fermata![G,CG]12[Q:1/4=60] |] %58
V:2
 (C2 E) | (C2 E) (C2 E) (C2 E) (C2 E) | (C2 E) (C2 E) (C2 E) (C2 E) | (=C2 E) (C2 E) (C2 E) B,2 D | %4
 [G,D]3 G,3/2 E x/ D3/2 A x/ [G,D]3 | =B,2 D B,2 D B,2 =D B,2 D | A,2 C A,2 C A,2 C F2 c | x12 | %8
 x3 G,3/2 E x/ D3/2 A x/ A,3 | C/^B,/D/C/F/E/ C/B,/D/C/F/E/ C/B,/D/C/F/E/ C/B,/D/C/F/E/ | %10
 C/^B,/D/C/F/E/ C/B,/D/C/F/E/ C/B,/D/C/F/E/ C/B,/D/C/F/E/ | %11
 =C/B,/=D/C/F/E/ C/B,/D/C/F/E/ C/B,/D/C/F/E/ B,/A,/^C/B,/=E/^D/ | %12
 ^B,/^^A,/C/B,/E/D/ G,3/2 E x/ D3/2 A x/ B,/^^A,/C/B,/E/D/ | %13
 =B,/^A,/C/B,/E/D/ B,/A,/C/B,/E/D/ B,/A,/C/B,/E/=D/ B,/A,/C/B,/=E/D/ | %14
 A,/G,/B,/A,/=D/C/ A,/G,/B,/A,/=D/C/ A,/G,/B,/A,/D/C/ F/^E/G/F/c | %15
 C/^B,/D/C/F/^E/ C/B,/D/C/F/E/ C/B,/D/C/F/=E/ C/B,/D/C/^F/E/ | %16
 B,/^A,/C/B,/E/D/ B,/A,/C/B,/=E/D/ B,/A,/C/B,/E/D/ G/^^F/^A/G/D | G/^^F/^A/G/B/A/ x9 | %18
 x3 ^^F,/^^E,/G,/F,/=B,/^A,/ F,/E,/G,/F,/B,/A,/ D/^^C/=E/D/G/^^F/ | G/^^F/^A/G/B/A/ x9 | x12 | %21
 x4 G2 G2 c c2 B | (B2 ^A) (G2 F) F3 F3 | E2 x2 E2 E2 A A2 G | G2 ^^F F3 F3 ^G3 | %25
 G2 x2 G2 G2 c c2 B | (B2 ^A) (G2 F) F3 F3 | =D2 x4 [DF]2 z z2 z | [^DF]2 x4 [=DF]2 z x2 z | %29
 [^DF]2 x4 [DF]2 x4 | [DF]3 [DF]3 [DF]2 [G,D] [G,C][G,C][G,C] | %31
 [=G,C][G,C][G,C] [G,C][G,C]C [F,C][F,C][F,C] [^G,C][G,C][G,C] | %32
 [=G,C][G,C][G,C] [G,C][G,C]C [F,C][F,C][F,C] [^G,C][G,C][G,C] | %33
 [G,=C][G,C][G,C] [G,C][G,C]E [G,C][G,C][G,C] [E,B,][F,B,][^^F,B,] | %34
 [G,^B,][G,B,][G,B,] G,3/2 E x/ D3/2 A x/ [G,B,][G,B,][G,B,] | %35
 [A,=B,][A,B,][A,B,] [A,B,][A,B,][A,B,] [A,B,][A,B,][A,B,] [^E,B,][E,B,][E,B,] | G,G,G, x9 | %37
 [Ac][Ac][Ac] [Ac][Ac][Ac] [CD][CD][CD] [CD][CD][CD] | %38
 [CD][CD][CD] [CD][CD][CD] [EF][EF][EF] [DF][DF]^B | x12 | x12 | x12 | x12 | x12 | x12 | x12 | %46
 x11 [CE] | [=B,D][B,D][B,D] [B,D][B,D]F [B,D][B,D][B,D] [^B,D][B,D][B,D] | DDD x9 | %49
 [ea][ea][ea] [ea][ea][ea] [ea][ea][ea] [ea][ea][ea] | ggg x9 | %51
 [B,D][B,D][B,D] [B,D][B,D]F [B,D][B,D][B,D] [^B,D][B,D][B,D] | DDD x9 | %53
 [ea][ea][ea] [ea][ea][ea] [ea][ea][ea] [ea][ea][ea] | ggg x9 | [Gc]3 x9 |[K:bass] x12 | %57
[K:treble] x4 x4 x4 |] %58
V:3
 A,3 | A,6 ^A,3 =A,3 | A,6 ^A,3 =A,3 | A,6 A,3 A,3 | x12 | ^E,6 E,3 G,3 | ^E,3 x9 | x12 | %8
 x9 C/^B,/D/C/F/E/ | A,6 ^A,3 =A,3 | A,6 ^A,3 =A,3 | A,6 x6 | x12 | ^E,3 x9 | x12 | x12 | x12 | %17
 x12 | x12 | x12 | x12 | x12 | x12 | x12 | x12 | x12 | x12 | x12 | x12 | x12 | x12 | x12 | x12 | %33
 x12 | x12 | x12 | x12 | x12 | x12 | x12 | x12 | x12 | x12 | x12 | x12 | x12 | x12 | x12 | x12 | %49
 x12 | x12 | x12 | x12 | x12 | x12 | x12 |[K:bass] x12 |[K:treble] x12 |] %58
V:4
!ped! (E,/G,/E,/A,,/C,/C,,/)!ped-up! | %1
!ped! (E,/!>(!=G,/E,/A,,/C,/C,,/)!ped-up!!ped! (E,/G,/E,/A,,/!>)!C,/C,,/)!ped-up!!ped! (E,/F,/E,/^A,,/C,/C,,/)!ped-up!!ped! (E,/^G,/E,/=A,,/C,/C,,/)!ped-up! | %2
!ped! (E,/!>(!=G,/E,/A,,/C,/C,,/)!ped-up!!ped! (E,/G,/E,/A,,/!>)!C,/C,,/)!ped-up!!ped! (E,/F,/E,/^A,,/C,/C,,/)!ped-up!!ped! (E,/^G,/E,/=A,,/C,/C,,/)!ped-up! | %3
!ped! (E,/G,/E,/A,,/=C,/=C,,/)!ped-up!!ped! (E,/G,/E,/A,,/C,/C,,/)!ped-up!!ped! (E,/G,/E,/A,,/C,/C,,/)!ped-up!!ped! (D,/F,/D,/A,,/B,,/B,,,/)!ped-up! | %4
!ped! (D,/G,/D,/G,,/^B,,/^B,,,/)!ped-up!!ped! (B,,,/G,,/D,/B,,/ G,/) z/!ped-up!!ped! (B,,/G,/D/^B,/ ^B/) z/!ped-up!!ped! (D,/G,/D,/G,,/B,,/B,,,/)!ped-up! | %5
!ped! (D,/A,/D,/^E,,/=B,,/=B,,,/)!ped-up!!ped! (D,/A,/D,/E,,/B,,/B,,,/)!ped-up!!ped! (=D,/A,/D,/E,,/B,,/B,,,/)!ped-up!!ped! (D,/^E,/D,/A,,/B,,/B,,,/)!ped-up! | %6
!ped! (C,/G,/C,/^E,,/A,,/A,,,/)!ped-up!!ped! (C,/G,/C,/G,,/A,,/A,,,/)!ped-up!!ped! (C,/F,/C,/F,,/A,,/A,,,/)!ped-up!!ped! (C,/A,/C,/F,,/A,,/A,,,/)!ped-up! | %7
!ped! (=D,/A,/D,/F,,/F,,/F,,,/)!ped-up!!ped! (D,/A,/D,/F,,/F,,/F,,,/)!ped-up!!ped! (^D,/A,/D,/^^F,,/F,,/^^F,,,/)!ped-up!!ped! (D,/A,/D,/F,,/F,,/F,,,/)!ped-up! | %8
!ped! (D,/G,/D,/G,,/G,,/G,,,/)!ped-up!!ped! (G,,/D,/^B,/G,/ G/) z/!ped-up!!ped! (G,,/D,/B,/B,/ ^B/) z/!ped-up!!ped! (E,/G,/E,/A,,/C,/C,,/)!ped-up! | %9
!ped! (E,/=G,/E,/A,,/C,/C,,/)!ped-up!!ped! (E,/G,/E,/A,,/C,/C,,/)!ped-up!!ped! (E,/F,/E,/^A,,/C,/C,,/)!ped-up!!ped! (E,/G,/E,/=A,,/C,/C,,/)!ped-up! | %10
!ped! (E,/=G,/E,/A,,/C,/C,,/)!ped-up!!ped! (E,/G,/E,/A,,/C,/C,,/)!ped-up!!ped! (E,/F,/E,/^A,,/C,/C,,/)!ped-up!!ped! (E,/^G,/E,/=A,,/C,/C,,/)!ped-up! | %11
!ped! (E,/G,/E,/A,,/=C,/=C,,/)!ped-up!!ped! (E,/G,/E,/A,,/C,/C,,/)!ped-up!!ped! (E,/G,/E,/A,,/C,/C,,/)!ped-up!!ped! (D,/F,/D,/A,,/B,,/B,,,/)!ped-up! | %12
!ped! (D,/G,/D,/G,,/^B,,/^B,,,/)!ped-up!!ped! (B,,,/G,,/D,/B,,/ G,/) z/!ped-up!!ped! (B,,/G,/D/^B,/ ^B/) z/!ped-up!!ped! (D,/G,/D,/G,,/B,,/B,,,/)!ped-up! | %13
!ped! (D,/A,/D,/^E,,/B,,/B,,,/)!ped-up!!ped! (D,/A,/D,/E,,/B,,/B,,,/)!ped-up!!ped! (=D,/A,/D,/E,,/B,,/B,,,/)!ped-up!!ped! (D,/^E,/D,/A,,/B,,/B,,,/)!ped-up! | %14
!ped! (C,/G,/C,/^E,,/A,,/A,,,/)!ped-up!!ped! (C,/G,/C,/G,,/A,,/A,,,/)!ped-up!!ped! (C,/F,/C,/F,,/A,,/A,,,/)!ped-up!!ped! (C,/A,/C,/F,,/A,,/A,,,/)!ped-up! | %15
!ped! (^E,/B,/E,/^^F,,/C,/C,,/)!ped-up!!ped! (E,/B,/E,/F,,/C,/C,,/)!ped-up!!ped! (=E,/B,/E,/F,,/C,/C,,/)!ped-up!!ped! (E,/^^F,/E,/B,,/C,/C,,/)!ped-up! | %16
!ped! (D,/^A,/D,/^^F,,/B,,/B,,,/)!ped-up!!ped! (D,/A,/D,/^A,,/B,,/B,,,/)!ped-up!!ped! (D,/G,/D,/G,,/B,,/B,,,/)!ped-up!!ped! (G,/^^C/G,/^^C,/D,/B,,/)!ped-up! | %17
!ped! (G,/E/G,/^A,,/A,,/^A,,,/)!ped-up!!ped! (G,/E/G,/A,,/A,,/A,,,/)!ped-up!!ped! (E,/^^C/E,/A,,/A,,/A,,,/)!ped-up!!ped! (E,/C/E,/A,,/A,,/A,,,/)!ped-up! | %18
!ped! (D,/D/^^F,/^A,,/D,/D,,/)!ped-up!!ped! (A,,/D,/A,,/D,,/D,,/D,,,/)!ped-up!!ped! (A,,/D,/A,,/D,,/A,,/F,/)!ped-up!!ped! (F,/^A,/F,/A,,/D,/D,,/)!ped-up! | %19
!ped! (G,/E/G,/^A,,/A,,/^A,,,/)!ped-up!!ped! (G,/E/G,/A,,/A,,/A,,,/)!ped-up!!ped! (E,/^^C/E,/A,,/A,,/A,,,/)!ped-up!!ped! (E,/C/E,/A,,/A,,/A,,,/)!ped-up! | %20
!ped! (D,/D/^^F,/^A,,/D,/D,,/)!ped-up!!ped! z2 F,/A,,/!ped-up!!ped! z2 ^A,/D,/!ped-up!!ped! (F,/^^F/=A,/F,/A,,/D,,/)!ped-up! | %21
!ped! (E,,/^B,,/G,/E,/^B,/G/)!ped-up!!ped! (G/B,/E,/G,/B,,/E,,/)!ped-up!!ped! (E,,/C,/G,/E,/C/G/)!ped-up!!ped! (G/C/E,/G,/C,/E,,/)!ped-up! | %22
!ped! (F,,/C,/E,/F,/C/E/)!ped-up!!ped! (E/^A,/F,/E,/^A,,/F,,/)!ped-up!!ped! (B,,,/F,,/C,/B,,/F,/D/)!ped-up!!ped! (D/F,/B,,/D,/F,,/B,,,/)!ped-up! | %23
!ped! (C,,/G,,/E,/C,/G,/E/)!ped-up!!ped! (E/G,/C,/E,/G,,/C,,/)!ped-up!!ped! (C,,/A,,/E,/C,/A,/E/)!ped-up!!ped! (E/A,/C,/E,/A,,/C,,/)!ped-up! | %24
!ped! (D,,/^A,,/C,/D,/^A,/C/)!ped-up!!ped! (C/^^F,/D,/C,/^^F,,/D,,/)!ped-up!!ped! (A,,,/E,,/A,,/G,,/E,/A,/)!ped-up!!ped! (B,/D,/G,,/D,,/B,,/G,/)!ped-up! | %25
!ped! (E,,/^B,,/G,/E,/^B,/G/)!ped-up!!ped! (G/B,/E,/G,/B,,/E,,/)!ped-up!!ped! (E,,/C,/G,/E,/C/G/)!ped-up!!ped! (G/C/E,/G,/C,/E,,/)!ped-up! | %26
!ped! (F,,/C,/E,/F,/C/E/)!ped-up!!ped! (E/^A,/F,/E,/^A,,/F,,/)!ped-up!!ped! (B,,,/F,,/C,/B,,/F,/D/)!ped-up!!ped! (D/F,/B,,/D,/F,,/B,,,/)!ped-up! | %27
!ped! (F,,/=D,/G,/F,/=D/G/)!ped-up!!ped! (G/D/F,/G,/D,/F,,/)!ped-up!!ped! (F,,/=D,/A,/F,/E/A/)!ped-up!!ped! (A/=D/F,/A,/D,/F,,/)!ped-up! | %28
!ped! (G,,/^D,/G,/G,/D/G/)!ped-up!!ped! (G/=D/F,/G,/=D,/F,,/)!ped-up!!ped! (F,,/D,/A,/F,/E/A/)!ped-up!!ped! (A/D/F,/A,/D,/F,,/)!ped-up! | %29
!ped! (G,,/^D,/G,/G,/D/G/)!ped-up!!ped! (A/D/F,/G,/D,/G,,/)!ped-up!!ped! (G,,/D,/G,/G,/D/G/)!ped-up!!ped! (A/D/G,/A,/D,/G,,/)!ped-up! | %30
!ped! (G,/D,/G,,/G,/D,/G,,/)!ped-up!!ped! (A,/D,/G,,/^A,/D,/G,,/)!ped-up!!ped! (B,/D,/G,,/^B,/F,/G,,/)!ped-up!!ped! (2:3:2[A,,E,=A,] !>![C,,,C,,]!ped-up! | %31
!ped! (2:3:2[A,,E,A,] !>![C,,,C,,]!ped-up!!ped! (2:3:2[A,,E,A,] !>![C,,,C,,]!ped-up!!ped! (2:3:2[^A,,E,^A,] !>![C,,,C,,]!ped-up!!ped! (2:3:2[=A,,E,=A,] !>![C,,,C,,]!ped-up! | %32
!ped! (2:3:2[A,,E,A,] !>![C,,,C,,]!ped-up!!ped! (2:3:2[A,,E,A,] !>![C,,,C,,]!ped-up!!ped! (2:3:2[^A,,E,^A,] !>![C,,,C,,]!ped-up!!ped! (2:3:2[=A,,E,=A,] !>![C,,,C,,]!ped-up! | %33
!ped! (2:3:2[A,,E,A,] !>![=C,,,=C,,]!ped-up!!ped! (2:3:2[A,,E,A,] !>![C,,,C,,]!ped-up!!ped! (2:3:2[A,,E,A,] !>![C,,,C,,]!ped-up!!ped! (2:3:2[A,,E,A,] !>![C,,,C,,]!ped-up! | %34
!ped! (2:3:2[G,,D,G,] !>![^B,,,,^B,,,]!ped-up!!ped! (2:3:2[G,,D,] !>![B,,,,B,,,]!ped-up!!ped! (2:3:2[G,,D,G,] !>![B,,,,B,,,]!ped-up!!ped! (2:3:2[G,,D,] !>![B,,,,B,,,]!ped-up! | %35
!ped! (2:3:2[^E,,D,^E,] !>![=B,,,,=B,,,]!ped-up!!ped! (2:3:2[E,,D,E,] !>![B,,,,B,,,]!ped-up!!ped! (2:3:2[E,,=D,E,] !>![B,,,,B,,,]!ped-up!!ped! (2:3:2[A,,D,A,] !>![B,,,,B,,,]!ped-up! | %36
!ped! (2:3:2[^E,,C,^E,] !>![A,,,,A,,,]!ped-up!!ped! (2:3:2[G,,C,G,] !>![A,,,,A,,,]!ped-up!!ped! (2:3:2[F,,C,F,] !>![A,,,,A,,,]!ped-up!!ped! (2:3:2F, !>![A,,,A,,]!ped-up! | %37
!ped! (2:3:2[F,,=D,A,] !>![F,,,F,,]!ped-up!!ped! (2:3:2!>![=D,,D,] !>![F,,,F,,]!ped-up!!ped! (2:3:2[^^F,,^D,A,] !>![^^F,,,F,,]!ped-up!!ped! (2:3:2!>![^D,,D,] !>![F,,,F,,]!ped-up! | %38
!ped! (2:3:2[G,,D,G,] !>![G,,,G,,]!ped-up!!ped! (2:3:2[D,,D,] !>![G,,,G,,]!ped-up!!ped! (2:3:2[G,,F,^B,] !>![G,,,G,,]!ped-up!!ped! (2:3:2[G,,G,] !>![G,,,G,,]!ped-up! | %39
!ped! (A,,/^E,/C/A,/^E/c/)!ped-up!!ped! (c/E/A,/C/E,/A,,/)!ped-up!!ped! (A,,/F,/C/A,/F/c/)!ped-up!!ped! (c/F/A,/C/F,/A,,/)!ped-up! | %40
!ped! (B,,/F,/A,/B,/F/A/)!ped-up!!ped! (A/D/B,/A,/D,/B,,/)!ped-up!!ped! (E,,/B,,/F,/E,/B,/G/)!ped-up!!ped! (G/B,/E,/G,/B,,/E,,/)!ped-up! | %41
!ped! (F,,/C,/A,/F,/C/A/)!ped-up!!ped! (A/C/F,/A,/C,/F,,/)!ped-up!!ped! (F,,/=D,/A,/F,/=D/A/)!ped-up!!ped! (A/D/F,/A,/D,/F,,/)!ped-up! | %42
!ped! (G,,/^D,/F,/G,/D/F/)!ped-up!!ped! (F/^B,/G,/F,/^B,,/G,,/)!ped-up!!ped! (C,,/A,,/D,/C,/A,/D/)!ped-up!!ped! (E/G,/C,/G,,/E,/C/)!ped-up! | %43
!ped! (A,,/^E,/C/A,/^E/c/)!ped-up!!ped! (c/E/A,/C/E,/A,,/)!ped-up!!ped! (A,,/F,/C/A,/F/c/)!ped-up!!ped! (c/F/A,/C/F,/A,,/)!ped-up! | %44
!ped! (B,,/F,/A,/B,/F/A/)!ped-up!!ped! (A/D/B,/A,/D,/B,,/)!ped-up!!ped! (E,,/B,,/F,/E,/B,/G/)!ped-up!!ped! (G/B,/E,/G,/B,,/E,,/)!ped-up! | %45
!ped! (F,,/C,/A,/F,/C/A/)!ped-up!!ped! (A/C/F,/A,/C,/F,,/)!ped-up!!ped! (F,,/=D,/A,/F,/=D/A/)!ped-up!!ped! (A/D/F,/A,/D,/F,,/)!ped-up! | %46
!ped! (G,,/^D,/F,/G,/D/F/)!ped-up!!ped! (F/^B,/G,/F,/^B,,/G,,/)!ped-up!!ped! (C,,/G,,/E,/C,/G,/E/)!ped-up!!ped! (E/G,/C,/E,/G,,/C,,/)!ped-up! | %47
!ped! [A,,D,F,]2 !>![C,,,C,,]!ped-up!!ped! !>![A,,,A,,]3!ped-up!!ped! (2:3:2[A,,D,F,] !>![C,,,C,,]!ped-up!!ped! (2:3:2[G,,D,F,] !>![C,,,C,,]!ped-up! | %48
!ped! [G,,E,]2 !>![C,,,C,,]!ped-up!!ped! (2:3:2!>![G,,,G,,] !>![C,,,C,,]!ped-up!!ped! (2:3:2[G,,E,G,] !>![C,,,C,,]!ped-up!!ped! (2:3:2[G,,E,C] !>![C,,,C,,]!ped-up! | %49
!ped! [^^F,,E,C]2 !>![C,,,C,,]!ped-up!!ped! !>![^^F,,,F,,]3!ped-up!!ped! (2:3:2[E,^^F,A,CE] !>![C,,,C,,]!ped-up!!ped! (2:3:2[E,F,A,CE] !>![C,,,C,,]!ped-up! | %50
!ped! [E,G,CE]2 !>![C,,,C,,]!ped-up!!ped! !>![G,,,G,,]3!ped-up!!ped! [E,CG]3!ped-up!!ped! [G,C]2 [G,,E,G,]!ped-up! | %51
!ped! [A,,D,F,]2 !>![C,,,C,,]!ped-up!!ped! !>![A,,,A,,]3!ped-up!!ped! (2:3:2[A,,D,F,] !>![C,,,C,,]!ped-up!!ped! (2:3:2[G,,D,F,] !>![C,,,C,,]!ped-up! | %52
!ped! [G,,E,]2 !>![C,,,C,,]!ped-up!!ped! (2:3:2!>![G,,,G,,] !>![C,,,C,,]!ped-up!!ped! (2:3:2[G,,E,G,] !>![C,,,C,,]!ped-up!!ped! (2:3:2[G,,E,C] !>![C,,,C,,]!ped-up! | %53
!ped! [^^F,,E,C]2 !>![C,,,C,,]!ped-up!!ped! !>![^^F,,,F,,]3!ped-up!!ped! (2:3:2[E,^^F,A,CE] !>![C,,,C,,]!ped-up!!ped! (2:3:2[E,F,A,CE] !>![C,,,C,,]!ped-up! | %54
!ped! [E,G,CE]2 !>![C,,,C,,]!ped-up!!ped! !>![G,,,G,,]3!ped-up!!ped! [E,CG]3!ped-up!!ped! [G,C]2 [G,,E,G,]!ped-up! | %55
!ped! [E,G,CE]2 !>![C,,,C,,]!ped-up!!ped! !>![G,,,G,,]3!ped-up!!ped! E,3!ped-up!!ped! [G,,C,]3!ped-up! | %56
!ped! [C,,G,,]12!ped-up! |!ped!{/!>!!fermata![C,,,C,,]} !fermata![C,,G,,C,]12!ped-up! |] %58
V:5
 x3 | x12 | x12 | x12 | x12 | x12 | x2 C- x9 | x12 | x12 | x12 | x12 | x12 | x12 | x12 | x12 | %15
 x12 | x12 | x12 | x12 | x12 | x12 | x12 | x12 | x12 | x12 | x12 | x12 | x12 | x12 | x12 | x12 | %31
 x12 | x12 | x12 | x12 | x12 | x12 | x12 | x12 | x12 | x12 | x12 | x12 | x12 | x12 | x12 | x12 | %47
 x12 | x12 | x12 | x12 | x12 | x12 | x12 | x12 | x12 |[K:bass] x12 |[K:treble] x12 |] %58

